X: 49
T:Hunter's House, The
M:C|
L:1/8
C:Ed Reavy
R:Reel
K:G
Bd~d2 cAFA|~G2BG DGBG|Bd~d2 cAFA|GBAG FDCE|!
DG~G2 AG~G2|BGAF GABc|defg agfd|cAFA G3A:|!
|:B2gB aBgB|B2gf edcB|Aa~a2 bgaf|dfaf gfed|!
B2gB aBgB|B2gf edcB|cBAg fgaf|gdBd cAFA:|]!
